antibot/app/images/dist/main-list-icon3.svg

<svg width="26" height="26" viewBox="0 0 26 26" fill="none" xmlns="http://www.w3.org/2000/svg">
<path d="M4.18359 8.25391V24.193C4.18359 25.0974 4.86185 25.7756 5.7662 25.7756H20.1227C21.0271 25.7756 21.7053 25.0974 21.7053 24.193V8.25391H4.18359ZM9.04446 22.6104H7.46185V11.4191H9.04446V22.6104ZM12.2097 22.6104H10.6271V11.4191H12.2097V22.6104ZM15.3749 22.6104H13.7923V11.4191H15.3749V22.6104ZM18.5401 22.6104H16.9575V11.4191H18.5401V22.6104Z" fill="#57B36E"/>
<path d="M22.1561 3.39178H16.9561V1.47004C16.9561 0.79178 16.3909 0.226562 15.7127 0.226562H10.1735C9.49526 0.226563 9.04309 0.79178 9.04309 1.47004V3.39178H3.84309C3.16483 3.39178 2.59961 3.957 2.59961 4.63526V6.67004H23.3996V4.63526C23.3996 3.957 22.8344 3.39178 22.1561 3.39178ZM15.3735 3.39178H10.6257V1.80917H15.3735V3.39178V3.39178Z" fill="#57B36E"/>
</svg>

<svg width="26" height="26" fill="none" xmlns="http://www.w3.org/2000/svg"><path d="M4.184 8.254v15.939c0 .904.678 1.583 1.582 1.583h14.357c.904 0 1.582-.679 1.582-1.583V8.253H4.184Zm4.86 14.356H7.462V11.42h1.582v11.19Zm3.166 0h-1.583V11.42h1.583v11.19Zm3.165 0h-1.583V11.42h1.583v11.19Zm3.165 0h-1.582V11.42h1.582v11.19Zm3.616-19.218h-5.2V1.47c0-.678-.565-1.243-1.243-1.243h-5.54c-.678 0-1.13.565-1.13 1.243v1.922h-5.2c-.678 0-1.243.565-1.243 1.243V6.67h20.8V4.635c0-.678-.566-1.243-1.244-1.243Zm-6.782 0h-4.748V1.809h4.748v1.583Z" fill="#57B36E"/></svg>
